X: 35
T: No_136_Why_Should_I_Be_Jealous?.krn
N: Derived from No_136_Why_Should_I_Be_Jealous?.krn
%%abc-version 2.0
%%abcx-abcm2ps-target-version 5.9.1 (29 Sep 2008)
%%abc-creator hum2abc beta
%%abcx-conversion-date 2019/03/15 08:29:13
%%humdrum-veritas 4153121864
%%humdrum-veritas-data 4106685372
%%linebreak <none>
%%barnumbers 0
L: 1/4
M: 2/4
K: A clef=treble
[K:clef=treble][M:2/4]A3/B/ | 
c2 | 
BA | 
B2 | 
c3/B/ | 
A2 | 
FE | 
F2 | 
A3/F/ | 
E2 | 
CC | 
C2 | 
(E3/C/) | 
C2 | 
CC | 
C2 |]  



